X:1
T:B. D. Ackley
T:Lizzie DeArmond
T:He Thought of Me
%%score { ( 1 2 ) | ( 3 4 ) }
L:1/8
M:3/4
K:Ab
V:1 treble 
V:2 treble 
V:3 bass 
V:4 bass 
V:1
 z"^Duet"{/x} E =DE | C3 C DD | C3 C B,C | D3 C DD | E3 E EE | =E3 E EE | F3 A AA | A3 A GF | %8
w: O love di\-|vine! He tho't of|me When on the|cross of Cal\- va\-|ry: The sin that|bowed His head so|low, Should make my|tears for\- ev\- er|
w: He tho't of|me 'mid pain and|scorn, When pierced His|brow with crown of|thorns; Up\- on His|sin\- less soul was|laid The ran\- som|price, so free\- ly|
w: He tho't of|me, the Son of|God When thro' the|vale of death he|trod; Tho' reign\- ing|now in heav'n is|He, I know my|Sav\- ior thinks of|
 E3"^Chorus" d dd | d3 d cB | A3 A Bc | d3 c BF | B3 d cB | A3 c ee | d3 d AB | c3 d cB | %16
w: flow. O love di\-|vine! how can it|be He tho't of|you, He tho't of|me? Up\- on the|cross of Cal\- va\-|ry My bless\- ed|Sav\- ior tho't of|
w: paid. * * *||||||||
w: me. * * *||||||||
 A3 z z2 |] %17
w: me!|
w: |
w: |
V:2
 z [Cc] [=B,=B][Cc] | [A,A]3 [E,E] [B,B][E,E] | [A,A]3 [A,A] [G,G][A,A] | %3
 [B,B]3 [=A,=A] [B,B][E,E] | [Cc]3 [Cc] [Cc][Cc] | [Cc]3 [B,B] [A,A][G,G] | [A,A]3 [Cc] [Ff][Ee] | %7
 [=D=d]3 [Cc] [B,B][A,A] | [G,G]3 G FE | G3 F ED | C3 C DE | F3 E =DD | D3 F ED | C3 E _GG | %14
 F3 F F=E | E3 F ED | C3 z z2 |] %17
V:3
 z C =B,C | A,3 E, B,E, | A,3 A, G,A, | B,3 =A, B,E, | C3 C CC | C3 B, A,G, | A,3 E FE | %7
 =D3 C _B,A, | G,3 B, A,G, | B,3 A, A,G, | A,3 A, A,A, | A,3 A, A,A, | G,3 G, G,G, | A,3 A, A,A, | %14
 A,3 A, A,A, | A,3 G, A,G, | A,3 z z2 |] %17
V:4
 z A,,- A,,2 | A,,E, A, z E,2 | A,,E, A, z E,2 | E,G, B, z E,2 | A,,E, A,A,,- A,,2 | C,G, C z C,2 | %6
 F,C F z F,2 | =B,,F, =B, z B,,2 | [E,,E,]3 E, E,E, | E,3 E, E,E, | A,,3 A,, A,,A,, | %11
 A,,3 A,, B,,B,, | E,3 E, E,E, | F,3 E, C,C, | D,3 D, D,D, | E,3 E, E,E, | A,,3 z z2 |] %17

